X:306
T:Tuttle's Reel* 
T:Porthole of the Kelp 
B:CRE2.223 (gan ainm)
F:file ID: cre.2/0306tutt
M:C
R:reel
Q:180
K:Dm
A,DDE FEFG|AcGc AddF|A,DDE FAdA|cAGE EDEC|
A,DDE FEFG|AcGc Adde|fdec d2Ad|1 cAGE FDEC:|\
[2 cAGE FDD||
|:A|d2dA c2cA|d2dA cAGA|d2dA c2cA|GEcE EDD2|
dedA c=BcA|d2dA cAGA|fdec d2Ad|1 cAGE FDD:|\
[2 cAGE FDEC||

%%%

